src/assets/svg/icons/fa/nuevos/classic/duotone/toilet-paper-xmark classic duotone.svg

<svg xmlns="http://www.w3.org/2000/svg" viewBox="0 0 512 512"><!--! Font Awesome Pro 6.4.0 by @fontawesome - https://fontawesome.com License - https://fontawesome.com/license (Commercial License) Copyright 2023 Fonticons, Inc. --><defs><style>.fa-secondary{opacity:.4}</style></defs><path class="fa-primary" d="M416 384c-52.4 0-94.9-83.8-96-188.1c0-1.3 0-2.6 0-3.9C320 86 363 0 416 0s96 86 96 192V464c0 26.5-21.5 48-48 48H208c-26.5 0-48-21.5-48-48V384H416zm0-128c17.7 0 32-28.7 32-64s-14.3-64-32-64s-32 28.7-32 64s14.3 64 32 64z"/><path class="fa-secondary" d="M96 384C43 384 0 298 0 192S43 0 96 0H416c-53 0-96 86-96 192s43 192 96 192H128 96zM233 257c9.4-9.4 9.4-24.6 0-33.9l-31-31 31-31c9.4-9.4 9.4-24.6 0-33.9s-24.6-9.4-33.9 0l-31 31-31-31c-9.4-9.4-24.6-9.4-33.9 0s-9.4 24.6 0 33.9l31 31-31 31c-9.4 9.4-9.4 24.6 0 33.9s24.6 9.4 33.9 0l31-31 31 31c9.4 9.4 24.6 9.4 33.9 0z"/></svg>

<svg xmlns="http://www.w3.org/2000/svg" viewBox="0 0 512 512"><defs><style>.fa-secondary{opacity:.4}</style></defs><path class="fa-primary" d="M416 384C363.6 384 321.1 300.2 320 195.9C320 194.6 320 193.3 320 192C320 85.96 362.1 0 416 0C469 0 512 85.96 512 192V464C512 490.5 490.5 512 464 512H208C181.5 512 160 490.5 160 464V384H416zM416 256C433.7 256 448 227.3 448 192C448 156.7 433.7 128 416 128C398.3 128 384 156.7 384 192C384 227.3 398.3 256 416 256z"/><path class="fa-secondary" d="M96 384C42.98 384 0 298 0 192C0 85.96 42.98 0 96 0H416C362.1 0 320 85.96 320 192C320 298 362.1 384 416 384H96zM232.1 223L201.9 192L232.1 160.1C242.3 151.6 242.3 136.4 232.1 127C223.6 117.7 208.4 117.7 199 127L168 158.1L136.1 127C127.6 117.7 112.4 117.7 103 127C93.66 136.4 93.66 151.6 103 160.1L134.1 192L103 223C93.66 232.4 93.66 247.6 103 256.1C112.4 266.3 127.6 266.3 136.1 256.1L168 225.9L199 256.1C208.4 266.3 223.6 266.3 232.1 256.1C242.3 247.6 242.3 232.4 232.1 223V223z"/></svg>
